X:1
T:O Wonder Amazing
T:O Wonder Amazing
T:William Wallace Gilchrist, 1907
T:Frank Sewall (1837-1915)
T:Public Domain Courtesy of the Cyber Hymnal™
C:William Wallace Gilchrist, 1907
Z:Public Domain
Z:Courtesy of the Cyber Hymnal™
%%score ( 1 2 ) ( 3 4 )
L:1/8
Q:1/4=110
M:3/4
K:Bb
V:1 treble 
V:2 treble 
V:3 bass 
V:4 bass 
V:1
 D2 | [DG]2 [DF]2 E2 | C2 !fermata![B,D]2 [CF]2 | [DB]2 [DA]2 [CF]2 | !fermata![=EG]4 [FA]2 | %5
w: 1.~O|won- der a-|maz- ing! At|earth’s mid- night|hour The|
w: 2.~O|hearts that have|car- ried Your|sor- rows un-|told, The|
w: 3.~O|love, ceas- ing|nev- er, From|thee what can|part? What|
 [Fd]2 [Fc]2 [DB]2 | [=EG]2 !fermata![FA]2 [Fc]2 | [Ge]2 [Gd]2 [FB]2 | !fermata![Ac]4 [Fd]2 | %9
w: a- ges are|gaz- ing In|awe at its|power; The|
w: Help- er that|tar- ried Come|here and be-|hold! What|
w: height or depth|sev- er From|thy bleed- ing|heart? Now|
 [FG]2 [Ec]2 [EA]2 | [EB]2 [DG]2 [CEA]2 | [CD]2 [B,G]2 [A,E]2 | !fermata![A,D]4 D2 | %13
w: great se- cret|tell- ing, How|an- guish is|stilled, The|
w: proph- ets have|spo- ken The|tri- al en-|sures, By|
w: o- pens the|por- tal, O|blest Je- su|mine! Of|
 [DG]2 [DF]2 [B,E]2 | [A,C]2 [A,D]2 [DB]2 | [Ee]2 c3 (z B) | [DB]4 |] %17
w: e- vil dis-|pell- ing: The|Word is *||
w: tor- tures un-|bro- ken ’Tis|love that *||
w: man- sions im-|mor- tal, Of|mer- cy *||
V:2
 D2 | x4 E2 | x6 | x6 | x6 | x6 | x6 | x6 | x6 | x6 | x6 | x6 | x4 D2 | x6 | x6 | x2 F2 E2 x | %16
 x4 |] %17
V:3
 D,2 | [G,,B,]2 [B,,B,]2 [E,G,]2 | [F,A,]2 !fermata![B,,F,]2 [F,A,]2 | [B,,B,]2 [D,F,]2 [F,A,]2 | %4
 !fermata![C,C]4 [F,A,]2 | [D,A,]2 [F,A,]2 [B,,D]2 | [C,C]2 !fermata![F,C]2 [F,A,]2 | %7
 [E,B,]2 [G,B,]2 [B,D]2 | !fermata![F,F]4 [B,,D]2 | [E,D]2 [C,C]2 [F,C]2 | %10
 [B,,C]2 [E,B,]2 [A,,A,]2 | [D,A,]2 [G,,G,]2 [A,,G,]2 | !fermata![D,^F,]4 D,2 | %13
 [G,,B,]2 [B,,B,]2 [E,G,]2 | F,2 [D,^F,]2 (=F,B,) | [C,G,]2 A,3 (z B,) | [B,,F,B,]4 |] %17
V:4
 D,2 | x6 | x6 | x6 | x6 | x6 | x6 | x6 | x6 | x6 | x6 | x6 | x4 D,2 | x6 | F,2 B,,2 x2 | %15
 x2 F,2 [F,,F,]2 x | x4 |] %17

